communes/2787.svg

<?xml version="1.0" encoding="UTF-8"?>
<svg version="1.0" viewBox="0 0 603 763" xmlns="http://www.w3.org/2000/svg" xmlns:cc="http://creativecommons.org/ns#" xmlns:dc="http://purl.org/dc/elements/1.1/" xmlns:rdf="http://www.w3.org/1999/02/22-rdf-syntax-ns#" xmlns:xlink="http://www.w3.org/1999/xlink">
<metadata>
<rdf:RDF>
<cc:Work rdf:about="">
<dc:format>image/svg+xml</dc:format>
<dc:type rdf:resource="http://purl.org/dc/dcmitype/StillImage"/>
<dc:date/>
<dc:creator>
<cc:Agent>
<dc:title/>
</cc:Agent>
</dc:creator>
<cc:license rdf:resource="http://creativecommons.org/licenses/GPL/2.0/"/>
<dc:coverage/>
<dc:description/>
<dc:subject>
<rdf:Bag/>
</dc:subject>
<dc:language/>
<dc:title/>
</cc:Work>
<cc:License rdf:about="http://creativecommons.org/licenses/GPL/2.0/">
<cc:permits rdf:resource="http://web.resource.org/cc/Reproduction"/>
<cc:permits rdf:resource="http://web.resource.org/cc/Distribution"/>
<cc:requires rdf:resource="http://web.resource.org/cc/Notice"/>
<cc:permits rdf:resource="http://web.resource.org/cc/DerivativeWorks"/>
<cc:requires rdf:resource="http://web.resource.org/cc/ShareAlike"/>
<cc:requires rdf:resource="http://web.resource.org/cc/SourceCode"/>
</cc:License>
</rdf:RDF>
</metadata>
<defs>
<radialGradient id="a" cx="858.04" cy="579.93" r="300" gradientTransform="matrix(1.215 1.5316e-24 1.4647e-23 1.2667 -839.19 -490.49)" gradientUnits="userSpaceOnUse">
<stop stop-color="#fff" stop-opacity=".31373" offset="0"/>
<stop stop-color="#fff" stop-opacity=".25098" offset=".19"/>
<stop stop-color="#6b6b6b" stop-opacity=".12549" offset=".6"/>
<stop stop-opacity=".12549" offset="1"/>
</radialGradient>
</defs>
<desc>Coat of Arms of Canton of Freiburg (Fribourg)</desc>
<g>
<path d="m1.5 1.5v458.87c0 166.31 134.31 301.13 300 301.13s300-134.82 300-301.13v-458.87h-600z"/>
<path d="m393.12 331.87c-5.125-45.874-14.125-149.87-38.125-192.87-20.929-37.497-59-89-130-89-74 0-130 55-130 118 0 54 31 88 74 88 35 0 58-27 58-50s-17-40-31-40-24 16-24 16 15.596-0.249 15.596 13.501c0 7.061-4.46 14.121-13.75 14.121-12.264 0-20.812-11.148-20.812-25.271 0-26.757 22.298-47.567 47.196-47.567 37.906 0 58.717 41.993 58.717 85.473 0 23.413-13.008 90.23-16.072 109.62l-59 371 79.125-65.876 55 65.876 55-65.876 79.124 65.876-58.999-371z" fill="#fff"/>
<path d="m234.2 309.22h167.6c6.675 0 12.086-5.889 12.086-13.152s-5.411-13.152-12.086-13.152h-167.6c-6.675 0-12.086 5.889-12.086 13.152s5.411 13.152 12.086 13.152zm178.6 45.301h-189.6c-6.675 0-12.086 5.889-12.086 13.152s5.411 13.152 12.086 13.152h189.6c6.675 0 12.086-5.889 12.086-13.152s-5.411-13.152-12.086-13.152z" fill="#fff" stroke="#000" stroke-linecap="round" stroke-linejoin="round" stroke-width="6"/>
<path d="m423.84 311.12h-105.84-105.84c-10.632 0-19.249 9.292-19.249 20.755s8.617 20.756 19.249 20.756h105.84 105.84c10.631 0 19.249-9.293 19.249-20.756s-8.618-20.755-19.249-20.755z" fill="#fff" stroke="#000" stroke-linecap="round" stroke-linejoin="round" stroke-width="6"/>
</g>
<g>
<path d="m1.5 1.5v458.87c0 166.31 134.31 301.13 300 301.13 165.69 0 300-134.82 300-301.13v-458.87h-600z" fill="url(#a)"/>
<path d="m1.5 1.5v458.87c0 166.31 134.31 301.13 300 301.13 165.69 0 300-134.82 300-301.13v-458.87h-600z" fill="none" stroke="#000" stroke-width="3"/>
</g>
</svg>

<?xml version="1.0" encoding="UTF-8" standalone="no"?>
<svg
   xmlns:i="http://ns.adobe.com/AdobeIllustrator/10.0/"
   xmlns:dc="http://purl.org/dc/elements/1.1/"
   xmlns:cc="http://creativecommons.org/ns#"
   xmlns:rdf="http://www.w3.org/1999/02/22-rdf-syntax-ns#"
   xmlns:svg="http://www.w3.org/2000/svg"
   xmlns="http://www.w3.org/2000/svg"
   xmlns:xlink="http://www.w3.org/1999/xlink"
   xmlns:sodipodi="http://sodipodi.sourceforge.net/DTD/sodipodi-0.dtd"
   xmlns:inkscape="http://www.inkscape.org/namespaces/inkscape"
   height="763"
   width="603"
   version="1.0"
   id="svg20"
   sodipodi:version="0.32"
   inkscape:version="0.43"
   sodipodi:docname="2787.svg">
  <metadata
     id="metadata31">
    <rdf:RDF>
      <cc:Work
         rdf:about="">
        <dc:format>image/svg+xml</dc:format>
        <dc:type
           rdf:resource="http://purl.org/dc/dcmitype/StillImage" />
        <dc:date />
        <dc:creator>
          <cc:Agent>
            <dc:title />
          </cc:Agent>
        </dc:creator>
        <cc:license
           rdf:resource="http://creativecommons.org/licenses/GPL/2.0/" />
        <dc:coverage />
        <dc:description />
        <dc:subject>
          <rdf:Bag />
        </dc:subject>
        <dc:language />
        <dc:title />
      </cc:Work>
      <cc:License
         rdf:about="http://creativecommons.org/licenses/GPL/2.0/">
        <cc:permits
           rdf:resource="http://web.resource.org/cc/Reproduction" />
        <cc:permits
           rdf:resource="http://web.resource.org/cc/Distribution" />
        <cc:requires
           rdf:resource="http://web.resource.org/cc/Notice" />
        <cc:permits
           rdf:resource="http://web.resource.org/cc/DerivativeWorks" />
        <cc:requires
           rdf:resource="http://web.resource.org/cc/ShareAlike" />
        <cc:requires
           rdf:resource="http://web.resource.org/cc/SourceCode" />
      </cc:License>
    </rdf:RDF>
  </metadata>
  <defs
     id="defs29">
    <linearGradient
       id="linearGradient2893">
      <stop
         style="stop-color:#ffffff;stop-opacity:0.3137255;"
         offset="0"
         id="stop2895" />
      <stop
         id="stop2897"
         offset="0.19"
         style="stop-color:#ffffff;stop-opacity:0.25098041;" />
      <stop
         style="stop-color:#6b6b6b;stop-opacity:0.1254902;"
         offset="0.60000002"
         id="stop2901" />
      <stop
         style="stop-color:#000000;stop-opacity:0.1254902;"
         offset="1"
         id="stop2899" />
    </linearGradient>
    <linearGradient
       id="linearGradient2955">
      <stop
         style="stop-color:white;stop-opacity:0;"
         offset="0"
         id="stop2965" />
      <stop
         style="stop-color:black;stop-opacity:0.64583331;"
         offset="1"
         id="stop2959" />
    </linearGradient>
    <radialGradient
       inkscape:collect="always"
       xlink:href="#linearGradient2893"
       id="radialGradient3236"
       gradientUnits="userSpaceOnUse"
       gradientTransform="matrix(1.215027,1.531577e-24,1.464684e-23,1.266667,-839.1924,-490.4894)"
       cx="858.04236"
       cy="579.93323"
       fx="858.04236"
       fy="579.93323"
       r="300" />
    <foreignObject
       requiredExtensions="http://ns.adobe.com/AdobeIllustrator/10.0/"
       x="0"
       y="0"
       width="1"
       height="1"
       id="foreignObject1955" />
  </defs>
  <sodipodi:namedview
     inkscape:window-height="808"
     inkscape:window-width="1152"
     inkscape:pageshadow="2"
     inkscape:pageopacity="0.0"
     guidetolerance="10.0"
     gridtolerance="10.0"
     objecttolerance="10.0"
     borderopacity="1.0"
     bordercolor="#666666"
     pagecolor="#ffffff"
     id="base"
     inkscape:zoom="0.45184977"
     inkscape:cx="774.81863"
     inkscape:cy="369.14735"
     inkscape:window-x="-4"
     inkscape:window-y="-4"
     inkscape:current-layer="layer1"
     showgrid="false"
     showguides="true"
     inkscape:guide-bbox="true"
     inkscape:document-rotation="0" />
  <desc
     id="desc22">Coat of Arms of Canton of Freiburg (Fribourg)</desc>
  <g
     inkscape:groupmode="layer"
     id="layer1"
     inkscape:label="Fond écu"
     style="opacity:1">
    <path
       style="opacity:1;fill:#000000;stroke:none;fill-opacity:1"
       id="path1976"
       d="M 1.5,1.5 L 1.5,460.368 C 1.5,626.679 135.814,761.5 301.5,761.5 C 467.186,761.5 601.5,626.679 601.5,460.368 L 601.5,1.5 L 1.5,1.5 z " />
  </g>
  <g
     inkscape:groupmode="layer"
     id="layer2"
     inkscape:label="Meubles"
     style="opacity:1">
    <path
       style="stroke:none;stroke-width:2.75;stroke-linecap:round;stroke-linejoin:round;fill:#ffffff;fill-opacity:1"
       i:knockout="Off"
       d="M 393.125,331.874 C 388,286 379,182 355,139 C 334.071,101.503 296,50 225,50 C 151,50 95,105 95,168 C 95,222 126,256 169,256 C 204,256 227,229 227,206 C 227,183 210,166 196,166 C 182,166 172,182 172,182 C 172,182 187.596,181.751 187.596,195.501 C 187.596,202.562 183.136,209.622 173.846,209.622 C 161.582,209.622 153.034,198.474 153.034,184.351 C 153.034,157.594 175.332,136.784 200.23,136.784 C 238.136,136.784 258.947,178.777 258.947,222.257 C 258.947,245.67 245.939,312.487 242.875,331.874 L 183.875,702.876 L 263,637 L 318,702.876 L 373,637 L 452.124,702.876 L 393.125,331.874 z "
       id="path1961" />
    <path
       style="stroke:#000000;stroke-width:6;stroke-linecap:round;stroke-linejoin:round;fill:#ffffff;fill-opacity:1;stroke-opacity:1"
       i:knockout="Off"
       d="M 234.2,309.224 L 401.8,309.224 C 408.475,309.224 413.886,303.335 413.886,296.072 C 413.886,288.809 408.475,282.92 401.8,282.92 L 234.2,282.92 C 227.525,282.92 222.114,288.809 222.114,296.072 C 222.114,303.335 227.525,309.224 234.2,309.224 z M 412.8,354.525 L 223.2,354.525 C 216.525,354.525 211.114,360.414 211.114,367.677 C 211.114,374.94 216.525,380.829 223.2,380.829 L 412.8,380.829 C 419.475,380.829 424.886,374.94 424.886,367.677 C 424.886,360.414 419.475,354.525 412.8,354.525 z "
       id="path1963" />
    <path
       style="stroke:#000000;stroke-width:6;stroke-linecap:round;stroke-linejoin:round;fill:#ffffff;fill-opacity:1;stroke-opacity:1"
       i:knockout="Off"
       d="M 423.839,311.119 L 318,311.119 L 212.161,311.119 C 201.529,311.119 192.912,320.411 192.912,331.874 C 192.912,343.337 201.529,352.63 212.161,352.63 L 318,352.63 L 423.839,352.63 C 434.47,352.63 443.088,343.337 443.088,331.874 C 443.088,320.411 434.47,311.119 423.839,311.119 z "
       id="path1965" />
  </g>
  <g
     inkscape:groupmode="layer"
     id="layer3"
     inkscape:label="Reflet final"
     style="display:inline"
     sodipodi:insensitive="true">
    <path
       style="fill:url(#radialGradient3236);fill-opacity:1"
       d="M 1.5,1.5 L 1.5,460.3679 C 1.5,626.67854 135.81454,761.5 301.49993,761.5 C 467.1854,761.5 601.5,626.67854 601.5,460.3679 L 601.5,1.5 L 1.5,1.5 z "
       id="path2346" />
  </g>
  <g
     inkscape:groupmode="layer"
     id="layer4"
     inkscape:label="Contour final"
     style="display:inline"
     sodipodi:insensitive="true">
    <path
       style="fill:none;fill-opacity:1;stroke:#000000;stroke-width:3;stroke-miterlimit:4;stroke-dasharray:none;stroke-opacity:1"
       d="M 1.5,1.5 L 1.5,460.36794 C 1.5,626.67854 135.81454,761.5 301.49993,761.5 C 467.1854,761.5 601.5,626.67854 601.5,460.36794 L 601.5,1.5 L 1.5,1.5 z "
       id="path3239" />
  </g>
</svg>
